X: 36936
T: Short Is The Night, Long Is The Road
R: jig
M: 6/8
K: Bminor
|:B2F dcA|BAF EFA|BAF ~G3|Bce dcA|
~B3 dcA|BAF EFA|BAF EDC|1 DCB, B,DF:|2 DCB, B,2C||
DB,B, ~F3|B,DF B2d|cAA eAf|ecA EDC|
DB,B, ~F3|B,DF B2d|c2A edc|dBB B3|
G,B,D GAB|~d3 dcB|cAe AfA|ecA EDC|
~D3 ~E3|~F3 ABc|BAF EDC|DCB, B,DF||

